website/public/Images/logos/mayadata.svg

<svg width="178" height="40" viewBox="0 0 178 40" fill="none" xmlns="http://www.w3.org/2000/svg">
<g clip-path="url(#clip0)">
<path d="M132.364 12.3273C131.42 11.436 130.286 10.7704 128.993 10.3482C127.705 9.9273 125.734 9.72266 122.967 9.72266H118.468V29.4482H125.007C127.591 29.4482 129.599 29.0232 130.977 28.1856C132.356 27.3466 133.434 26.167 134.18 24.6815C134.919 23.2116 135.294 21.6254 135.294 19.9685C135.294 18.3273 135.042 16.8546 134.544 15.5907C134.042 14.3166 133.308 13.2186 132.364 12.3273ZM132.058 19.7639C132.058 20.8796 131.879 21.8715 131.525 22.7132C131.176 23.544 130.662 24.2559 129.996 24.8297C129.334 25.4001 128.543 25.7911 127.646 25.9923C126.704 26.2037 125.156 26.3112 123.044 26.3112H121.628V12.9106H122.228C124.277 12.9106 125.866 13.0147 126.95 13.2207C127.985 13.4172 128.898 13.8128 129.662 14.3982C130.421 14.9788 131.015 15.7437 131.428 16.6711C131.846 17.6114 132.058 18.6523 132.058 19.7639Z" fill="#62A7BD"/>
<path d="M159.674 9.69336H156.644V14.6793H154.345V17.476H156.644V26.5956C156.644 27.5601 156.881 28.2911 157.349 28.7698C157.82 29.2517 158.524 29.4956 159.443 29.4956C159.882 29.4956 160.493 29.4291 161.311 29.2935L161.729 29.2237V26.5597H160.054C159.871 26.5597 159.752 26.5506 159.685 26.5453C159.679 26.4951 159.674 26.4247 159.674 26.3262V17.476H162.316V14.6793H159.674V9.69336Z" fill="#62A7BD"/>
<path d="M63.0917 9.71289L56.1023 23.9245L49.0642 9.71289H47.7484L44.9404 29.4952H48.1226L49.6936 17.8854L55.4471 29.4952H56.7615L62.4396 17.9904L64.0092 29.4952H67.2429L64.4078 9.71289H63.0917Z" fill="#62A7BD"/>
<path d="M80.4535 16.2572C79.2296 15.1864 77.7814 14.6445 76.1342 14.6445C74.0949 14.6445 72.3426 15.377 70.926 16.8208C69.5114 18.2621 68.7939 20.0181 68.7939 22.0395C68.7939 24.0597 69.5062 25.8221 70.9109 27.2787C72.3203 28.7411 74.0413 29.4825 76.0264 29.4825C77.654 29.4825 79.1389 28.917 80.4535 27.7988V29.4957L83.3784 29.4825V14.6793H80.4535V16.2572ZM79.2736 18.8525C80.1322 19.734 80.5496 20.7998 80.5496 22.1112C80.5496 23.4207 80.1258 24.4813 79.2537 25.3539C78.382 26.227 77.3733 26.6512 76.1702 26.6512C74.9549 26.6512 73.9406 26.2098 73.0696 25.3008C72.1931 24.3873 71.767 23.3401 71.767 22.0997C71.767 20.8574 72.1862 19.8089 73.0486 18.8947C73.9032 17.9889 74.9204 17.5482 76.1582 17.5482C77.3992 17.5482 78.4183 17.9748 79.2736 18.8525Z" fill="#62A7BD"/>
<path d="M112.886 16.2572C111.662 15.1864 110.214 14.6445 108.567 14.6445C106.528 14.6445 104.775 15.377 103.359 16.8208C101.944 18.2621 101.227 20.0181 101.227 22.0395C101.227 24.0597 101.939 25.8221 103.343 27.2787C104.753 28.7411 106.474 29.4825 108.459 29.4825C110.087 29.4825 111.571 28.917 112.886 27.7988V29.4957L115.811 29.4825V14.6793H112.886V16.2572ZM111.706 18.8525C112.565 19.734 112.982 20.7998 112.982 22.1112C112.982 23.4207 112.558 24.4813 111.686 25.3539C110.815 26.227 109.806 26.6512 108.603 26.6512C107.387 26.6512 106.373 26.2098 105.502 25.3008C104.626 24.3873 104.2 23.3401 104.2 22.0997C104.2 20.8574 104.619 19.8089 105.481 18.8947C106.336 17.9889 107.353 17.5482 108.591 17.5482C109.832 17.5482 110.851 17.9748 111.706 18.8525Z" fill="#62A7BD"/>
<path d="M148.903 16.2572C147.679 15.1864 146.231 14.6445 144.583 14.6445C142.544 14.6445 140.792 15.377 139.375 16.8208C137.961 18.2621 137.243 20.0181 137.243 22.0395C137.243 24.0597 137.955 25.8221 139.36 27.2787C140.769 28.7411 142.49 29.4825 144.476 29.4825C146.103 29.4825 147.588 28.917 148.903 27.7988V29.4957L151.828 29.4825V14.6793H148.903V16.2572ZM147.723 18.8525C148.581 19.734 148.999 20.7998 148.999 22.1112C148.999 23.4207 148.575 24.4813 147.703 25.3539C146.831 26.227 145.823 26.6512 144.619 26.6512C143.404 26.6512 142.39 26.2098 141.519 25.3008C140.642 24.3873 140.216 23.3401 140.216 22.0997C140.216 20.8574 140.635 19.8089 141.498 18.8947C142.352 17.9889 143.37 17.5482 144.607 17.5482C145.848 17.5482 146.867 17.9748 147.723 18.8525Z" fill="#62A7BD"/>
<path d="M175.076 16.2572C173.852 15.1864 172.403 14.6445 170.756 14.6445C168.717 14.6445 166.965 15.377 165.548 16.8208C164.133 18.2621 163.416 20.0181 163.416 22.0395C163.416 24.0597 164.128 25.8221 165.533 27.2787C166.942 28.7411 168.663 29.4825 170.648 29.4825C172.276 29.4825 173.761 28.917 175.076 27.7988V29.4957L178.001 29.4825V14.6793H175.076V16.2572ZM173.896 18.8525C174.754 19.734 175.172 20.7998 175.172 22.1112C175.172 23.4207 174.748 24.4813 173.876 25.3539C173.004 26.227 171.995 26.6512 170.792 26.6512C169.577 26.6512 168.563 26.2098 167.692 25.3008C166.815 24.3873 166.389 23.3401 166.389 22.0997C166.389 20.8574 166.808 19.8089 167.671 18.8947C168.525 17.9889 169.542 17.5482 170.78 17.5482C172.021 17.5482 173.04 17.9748 173.896 18.8525Z" fill="#62A7BD"/>
<path d="M93.2557 24.0245L89.0675 14.6797H85.8066L91.6079 27.7645L88.7651 34.2685H92.0256L100.591 14.6797H97.3036L93.2557 24.0245Z" fill="#62A7BD"/>
<path d="M6.8457 14.3761V33.2868C6.8457 33.7685 7.10292 34.1397 7.52017 34.3798L16.7454 39.7974C17.1605 40.0363 17.6712 40.0816 18.0863 39.8428L27.3097 34.3963C27.7281 34.1555 27.986 33.7698 27.986 33.2868V14.3594L17.4159 20.6572L6.8457 14.3761Z" fill="#62A7BD"/>
<path d="M3.72144 31.3079V13.053C3.72144 12.7739 3.7918 12.4214 4.33686 12.1514L17.032 4.58862C17.2701 4.45286 17.5621 4.45286 17.8001 4.58862L30.7324 12.2914C30.9746 12.4295 31.1154 12.5199 31.1106 12.8376L31.1105 31.3079C31.1105 31.691 31.5331 31.8714 31.8678 31.6857L34.4674 30.1405C34.714 30.0036 34.832 29.7974 34.832 29.5152V10.6198C34.832 10.2869 34.7208 10.1729 34.4818 10.034L17.8046 0.105042C17.5643 -0.0346546 17.2677 -0.0350372 17.027 0.104039L0.381525 10.024C0.141501 10.1627 0 10.3994 0 10.6768V29.5152C0 29.7874 0.114651 29.9905 0.347615 30.131L2.97263 31.6909C3.30761 31.893 3.72144 31.6993 3.72144 31.3079Z" fill="#62A7BD"/>
<path d="M24.9482 12.6034L17.415 8.12695L9.88184 12.6034L17.415 17.0798L24.9482 12.6034Z" fill="#62A7BD"/>
</g>
<defs>
<clipPath id="clip0">
<rect width="178" height="40" fill="white"/>
</clipPath>
</defs>
</svg>

<svg xmlns="http://www.w3.org/2000/svg" width="178" height="40" fill="none" xmlns:v="https://vecta.io/nano"><g clip-path="url(#A)" fill="#62a7bd"><path d="M132.364 12.327c-.944-.891-2.078-1.557-3.371-1.979-1.288-.421-3.259-.626-6.026-.626h-4.499v19.726h6.539c2.584 0 4.592-.425 5.97-1.263s2.457-2.019 3.203-3.504a10.4 10.4 0 0 0 1.114-4.713c0-1.641-.252-3.114-.75-4.378-.502-1.274-1.236-2.372-2.18-3.263zm-.306 7.437c0 1.116-.179 2.108-.533 2.949-.349.831-.863 1.543-1.529 2.116s-1.453.961-2.35 1.163c-.942.211-2.49.319-4.602.319h-1.416v-13.4h.6c2.049 0 3.638.104 4.722.31 1.035.196 1.948.592 2.712 1.177.759.581 1.353 1.346 1.766 2.273.418.94.63 1.981.63 3.093zm27.616-10.071h-3.03v4.986h-2.299v2.797h2.299v9.12c0 .964.237 1.695.705 2.174s1.175.726 2.094.726c.439 0 1.05-.067 1.868-.202l.418-.07V26.56h-1.675c-.183 0-.302-.009-.369-.014a1.86 1.86 0 0 1-.011-.219v-8.85h2.642V14.68h-2.642V9.693zm-96.582.02l-6.989 14.212-7.038-14.212h-1.316L44.94 29.495h3.182l1.571-11.61 5.753 11.61h1.314l5.68-11.505 1.57 11.505h3.234L64.408 9.713h-1.316zm17.362 6.544c-1.224-1.071-2.672-1.613-4.319-1.613-2.039 0-3.792.732-5.208 2.176a7.21 7.21 0 0 0-2.132 5.219c0 2.022.712 3.783 2.117 5.239 1.409 1.462 3.13 2.204 5.115 2.204 1.628 0 3.113-.566 4.427-1.684v1.697l2.925-.013V14.679h-2.925v1.578zm-1.18 2.595c.859.882 1.276 1.947 1.276 3.259s-.424 2.37-1.296 3.243-1.88 1.297-3.084 1.297c-1.215 0-2.23-.441-3.101-1.35a4.43 4.43 0 0 1-1.303-3.201c0-1.242.419-2.291 1.282-3.205.855-.906 1.872-1.346 3.11-1.346a4.15 4.15 0 0 1 3.115 1.304zm33.612-2.595c-1.224-1.071-2.672-1.613-4.319-1.613-2.039 0-3.792.732-5.208 2.176a7.21 7.21 0 0 0-2.132 5.219c0 2.02.712 3.783 2.116 5.239 1.41 1.462 3.131 2.204 5.116 2.204 1.628 0 3.112-.566 4.427-1.684v1.697l2.925-.013V14.679h-2.925v1.578zm-1.18 2.595c.859.882 1.276 1.947 1.276 3.259s-.424 2.37-1.296 3.243-1.88 1.297-3.083 1.297c-1.216 0-2.23-.441-3.101-1.35S104.2 23.34 104.2 22.1a4.48 4.48 0 0 1 1.281-3.205c.855-.906 1.872-1.346 3.11-1.346a4.15 4.15 0 0 1 3.115 1.304zm37.197-2.595a6.37 6.37 0 0 0-4.32-1.613c-2.039 0-3.791.732-5.208 2.176s-2.132 3.197-2.132 5.219a7.31 7.31 0 0 0 2.117 5.239c1.409 1.462 3.13 2.204 5.116 2.204 1.627 0 3.112-.566 4.427-1.684v1.697l2.925-.013V14.679h-2.925v1.578zm-1.18 2.595c.858.882 1.276 1.947 1.276 3.259s-.424 2.37-1.296 3.243-1.88 1.297-3.084 1.297c-1.215 0-2.229-.441-3.1-1.35-.877-.913-1.303-1.961-1.303-3.201s.419-2.291 1.282-3.205a4.07 4.07 0 0 1 3.109-1.346c1.237 0 2.26.427 3.116 1.304zm27.353-2.595a6.37 6.37 0 0 0-4.32-1.613c-2.039 0-3.791.732-5.208 2.176a7.21 7.21 0 0 0-2.132 5.219 7.31 7.31 0 0 0 2.117 5.239c1.409 1.462 3.13 2.204 5.115 2.204 1.628 0 3.113-.566 4.428-1.684v1.697l2.925-.013V14.679h-2.925v1.578zm-1.18 2.595c.858.882 1.276 1.947 1.276 3.259s-.424 2.37-1.296 3.243a4.17 4.17 0 0 1-3.084 1.297c-1.215 0-2.229-.441-3.1-1.35-.877-.913-1.303-1.961-1.303-3.201s.419-2.291 1.282-3.205a4.07 4.07 0 0 1 3.109-1.346c1.241 0 2.26.427 3.116 1.304zm-80.64 5.173l-4.188-9.345h-3.261l5.801 13.085-2.843 6.504h3.26l8.565-19.589h-3.287l-4.048 9.345zm-86.41-9.649v18.911c0 .482.257.853.674 1.093l9.225 5.418c.415.239.926.284 1.341.045l9.223-5.446c.418-.241.676-.626.676-1.109V14.359l-10.57 6.298-10.57-6.281zM3.721 31.308V13.053c0-.279.07-.632.615-.902l12.695-7.563c.238-.136.53-.136.768 0l12.932 7.703c.242.138.383.229.378.546v18.47c0 .383.423.564.757.378l2.6-1.545a.66.66 0 0 0 .365-.625V10.62c0-.333-.111-.447-.35-.586L17.805.105c-.24-.14-.537-.14-.778-.001L.382 10.024a.74.74 0 0 0-.382.653v18.838a.67.67 0 0 0 .348.616l2.625 1.56c.335.202.749.008.749-.383z"/><path d="M24.948 12.603l-7.533-4.476-7.533 4.476 7.533 4.476 7.533-4.476z"/></g><defs><clipPath id="A"><path fill="#fff" d="M0 0h178v40H0z"/></clipPath></defs></svg>
